src/lib/packages/icons/src/assets/line/life-ring.svg

<svg width="24" height="24" viewBox="0 0 24 24" fill="none" xmlns="http://www.w3.org/2000/svg">
<path d="M12 1.25C6.072 1.25 1.25 6.073 1.25 12C1.25 17.927 6.072 22.75 12 22.75C17.928 22.75 22.75 17.927 22.75 12C22.75 6.073 17.928 1.25 12 1.25ZM19.043 17.982L16.151 15.09C16.798 14.224 17.195 13.161 17.195 12C17.195 10.839 16.798 9.77597 16.151 8.90997L19.043 6.01801C20.416 7.63201 21.25 9.719 21.25 12C21.25 14.281 20.416 16.368 19.043 17.982ZM8.30603 12C8.30603 9.963 9.963 8.30603 12 8.30603C14.037 8.30603 15.694 9.963 15.694 12C15.694 14.037 14.037 15.694 12 15.694C9.963 15.694 8.30603 14.037 8.30603 12ZM17.982 4.95801L15.09 7.84998C14.224 7.20298 13.161 6.80701 12 6.80701C10.839 6.80701 9.77597 7.20398 8.90997 7.84998L6.01801 4.95801C7.63301 3.58401 9.719 2.75 12 2.75C14.281 2.75 16.368 3.58401 17.982 4.95801ZM4.95697 6.01801L7.849 8.90997C7.202 9.77597 6.80499 10.839 6.80499 12C6.80499 13.161 7.202 14.224 7.849 15.09L4.95697 17.982C3.58397 16.368 2.75 14.281 2.75 12C2.75 9.719 3.58397 7.63201 4.95697 6.01801ZM6.01801 19.042L8.90997 16.15C9.77597 16.797 10.839 17.193 12 17.193C13.161 17.193 14.224 16.796 15.09 16.15L17.982 19.042C16.367 20.416 14.281 21.25 12 21.25C9.719 21.25 7.63201 20.416 6.01801 19.042Z" fill="currentColor"/>
</svg>

<svg xmlns="http://www.w3.org/2000/svg" width="24" height="24" fill="none"><path fill="currentColor" d="M12 1.25C6.072 1.25 1.25 6.073 1.25 12S6.072 22.75 12 22.75 22.75 17.927 22.75 12 17.928 1.25 12 1.25Zm7.043 16.732-2.892-2.892A5.144 5.144 0 0 0 17.195 12a5.144 5.144 0 0 0-1.044-3.09l2.892-2.892A9.204 9.204 0 0 1 21.25 12a9.204 9.204 0 0 1-2.207 5.982ZM8.306 12A3.698 3.698 0 0 1 12 8.306 3.698 3.698 0 0 1 15.694 12 3.698 3.698 0 0 1 12 15.694 3.698 3.698 0 0 1 8.306 12Zm9.676-7.042L15.09 7.85A5.143 5.143 0 0 0 12 6.807 5.15 5.15 0 0 0 8.91 7.85L6.018 4.958A9.201 9.201 0 0 1 12 2.75a9.2 9.2 0 0 1 5.982 2.208ZM4.957 6.018 7.849 8.91A5.144 5.144 0 0 0 6.805 12c0 1.161.397 2.224 1.044 3.09l-2.892 2.892A9.204 9.204 0 0 1 2.75 12c0-2.281.834-4.368 2.207-5.982Zm1.061 13.024L8.91 16.15A5.143 5.143 0 0 0 12 17.193a5.15 5.15 0 0 0 3.09-1.043l2.892 2.892A9.201 9.201 0 0 1 12 21.25a9.2 9.2 0 0 1-5.982-2.208Z"/></svg>
